src/assets/img/navbar/icon/account.svg

<svg height="18" width="18" xmlns:xlink="http://www.w3.org/1999/xlink" xmlns="http://www.w3.org/2000/svg"><g transform="translate(-1.45 1.65)"><use height="50" transform="matrix(.36 0 0 .36 1.45 -1.65)" width="50" xlink:href="#a"/><use height="17.95" transform="translate(10.8 -1.65)" width="8.65" xlink:href="#b"/><use height="13.6" transform="translate(5.05 .45)" width="11.3" xlink:href="#c"/><use height="13.6" transform="translate(5.05 .45)" width="11.3" xlink:href="#d"/></g><defs><path d="M25 0q0 10.3-7.3 17.65Q10.35 25 0 25t-17.65-7.35Q-25 10.3-25 0q0-10.35 7.35-17.7Q-10.35-25.05 0-25q10.35-.05 17.7 7.3Q25-10.35 25 0" fill="#fff" fill-rule="evenodd" transform="translate(25 25)" id="g"/><path d="M0 0q3.6.15 6.15 2.75 2.5 2.6 2.5 6.25t-2.5 6.25Q3.6 17.85 0 17.95V0" fill="url(#e)" fill-rule="evenodd" id="h"/><path d="M11.3 7.2q-.3.6-1.25.6l-.2-.2q-.65 2.75-4.2 2.75-3.45 0-4.15-2.6l-.2.05q-.95 0-1.25-.6-.15-.15.45-1l.85-.9Q1.6 3.7 2.6 2.15 3.95 0 5.65 0q1.7 0 3.05 2.15 1 1.5 1.25 3.1l.9.95.45 1m-7.65 3.5q1.55 0 1.55 2.05 0 .7-1.6.8l-2.2-.3q-.9-.5.3-1.55 1.1-1 1.95-1m4.15 0q.85 0 1.95 1 1.15 1.05.3 1.55-.7.45-2.2.3-1.6-.1-1.6-.8 0-2.05 1.55-2.05" fill="#f30" fill-rule="evenodd" id="i"/><path d="M11.3 7.2q-.3.6-1.25.6l-.2-.2q-.65 2.75-4.2 2.75-3.45 0-4.15-2.6l-.2.05q-.95 0-1.25-.6-.15-.15.45-1l.85-.9Q1.6 3.7 2.6 2.15 3.95 0 5.65 0q1.7 0 3.05 2.15 1 1.5 1.25 3.1l.9.95.45 1m-7.65 3.5q1.55 0 1.55 2.05 0 .7-1.6.8l-2.2-.3q-.9-.5.3-1.55 1.1-1 1.95-1m4.15 0q.85 0 1.95 1 1.15 1.05.3 1.55-.7.45-2.2.3-1.6-.1-1.6-.8 0-2.05 1.55-2.05" fill="url(#f)" fill-rule="evenodd" id="j"/><use height="50" width="50" xlink:href="#g" id="a"/><use height="17.95" width="8.65" xlink:href="#h" id="b"/><use height="13.6" width="11.3" xlink:href="#i" id="c"/><use height="13.6" width="11.3" xlink:href="#j" id="d"/><linearGradient gradientTransform="matrix(.0053 0 0 .011 4.3 8.95)" gradientUnits="userSpaceOnUse" id="e" spreadMethod="pad" x1="-819.2" x2="819.2"><stop offset="0" stop-color="#f96"/><stop offset="1" stop-color="#f96" stop-opacity="0"/></linearGradient><linearGradient gradientTransform="matrix(.0062 0 0 .0063 5.65 5.15)" gradientUnits="userSpaceOnUse" id="f" spreadMethod="pad" x1="-819.2" x2="819.2"><stop offset="0" stop-color="#f96"/><stop offset="1" stop-color="#f96" stop-opacity="0"/></linearGradient></defs></svg>

<?xml version="1.0" encoding="UTF-8" standalone="no"?>
<svg
   height="18.000122"
   width="18"
   version="1.1"
   id="svg4088"
   sodipodi:docname="account.svg"
   inkscape:version="1.1 (c4e8f9ed74, 2021-05-24)"
   xmlns:inkscape="http://www.inkscape.org/namespaces/inkscape"
   xmlns:sodipodi="http://sodipodi.sourceforge.net/DTD/sodipodi-0.dtd"
   xmlns:xlink="http://www.w3.org/1999/xlink"
   xmlns="http://www.w3.org/2000/svg"
   xmlns:svg="http://www.w3.org/2000/svg">
  <sodipodi:namedview
     id="namedview4090"
     pagecolor="#505050"
     bordercolor="#eeeeee"
     borderopacity="1"
     inkscape:pageshadow="0"
     inkscape:pageopacity="0"
     inkscape:pagecheckerboard="0"
     showgrid="false"
     inkscape:zoom="43.945946"
     inkscape:cx="8.8290283"
     inkscape:cy="10.581181"
     inkscape:current-layer="svg4088" />
  <g
     transform="translate(-1.45,1.6501216)"
     id="g4050">
    <use
       height="50"
       transform="matrix(0.36,0,0,0.36,1.45,-1.65)"
       width="50"
       xlink:href="#sprite0"
       id="use4042"
       x="0"
       y="0" />
    <use
       height="17.950001"
       transform="translate(10.8,-1.65)"
       width="8.6499996"
       xlink:href="#sprite1"
       id="use4044"
       x="0"
       y="0" />
    <use
       height="13.6"
       transform="translate(5.05,0.45)"
       width="11.3"
       xlink:href="#sprite2"
       id="use4046"
       x="0"
       y="0" />
    <use
       height="13.6"
       transform="translate(5.05,0.45)"
       width="11.3"
       xlink:href="#sprite3"
       id="use4048"
       x="0"
       y="0" />
  </g>
  <defs
     id="defs4086">
    <g
       id="sprite0"
       transform="translate(25,25)">
      <use
         height="50"
         transform="translate(-25,-25)"
         width="50"
         xlink:href="#shape0"
         id="use4052"
         x="0"
         y="0" />
    </g>
    <g
       id="shape0"
       transform="translate(25,25)">
      <path
         d="M 25,0 Q 25,10.3 17.7,17.65 10.35,25 0,25 -10.35,25 -17.65,17.65 -25,10.3 -25,0 q 0,-10.35 7.35,-17.7 7.3,-7.35 17.65,-7.3 10.35,-0.05 17.7,7.3 Q 25,-10.35 25,0"
         fill="#ffffff"
         fill-rule="evenodd"
         stroke="none"
         id="path4055" />
    </g>
    <g
       id="sprite1">
      <use
         height="17.950001"
         width="8.6499996"
         xlink:href="#shape1"
         id="use4058"
         x="0"
         y="0" />
    </g>
    <g
       id="shape1">
      <path
         d="m 0,0 q 3.6,0.15 6.15,2.75 2.5,2.6 2.5,6.25 0,3.65 -2.5,6.25 Q 3.6,17.85 0,17.95 V 0"
         fill="url(#gradient0)"
         fill-rule="evenodd"
         stroke="none"
         id="path4061" />
    </g>
    <linearGradient
       gradientTransform="matrix(0.0053,0,0,0.011,4.3,8.95)"
       gradientUnits="userSpaceOnUse"
       id="gradient0"
       spreadMethod="pad"
       x1="-819.20001"
       x2="819.20001">
      <stop
         offset="0.0"
         stop-color="#ff9966"
         id="stop4064" />
      <stop
         offset="1.0"
         stop-color="#ff9966"
         stop-opacity="0.0"
         id="stop4066" />
    </linearGradient>
    <g
       id="sprite2">
      <use
         height="13.6"
         width="11.3"
         xlink:href="#shape2"
         id="use4069"
         x="0"
         y="0" />
    </g>
    <g
       id="shape2">
      <path
         d="M 11.3,7.2 Q 11,7.8 10.05,7.8 L 9.85,7.6 Q 9.2,10.35 5.65,10.35 2.2,10.35 1.5,7.75 L 1.3,7.8 Q 0.35,7.8 0.05,7.2 -0.1,7.05 0.5,6.2 L 1.35,5.3 Q 1.6,3.7 2.6,2.15 3.95,0 5.65,0 q 1.7,0 3.05,2.15 1,1.5 1.25,3.1 l 0.9,0.95 0.45,1 m -7.65,3.5 q 1.55,0 1.55,2.05 0,0.7 -1.6,0.8 l -2.2,-0.3 q -0.9,-0.5 0.3,-1.55 1.1,-1 1.95,-1 m 4.15,0 q 0.85,0 1.95,1 1.15,1.05 0.3,1.55 -0.7,0.45 -2.2,0.3 -1.6,-0.1 -1.6,-0.8 0,-2.05 1.55,-2.05"
         fill="#ff3300"
         fill-rule="evenodd"
         stroke="none"
         id="path4072" />
    </g>
    <g
       id="sprite3">
      <use
         height="13.6"
         width="11.3"
         xlink:href="#shape3"
         id="use4075"
         x="0"
         y="0" />
    </g>
    <g
       id="shape3">
      <path
         d="M 11.3,7.2 Q 11,7.8 10.05,7.8 L 9.85,7.6 Q 9.2,10.35 5.65,10.35 2.2,10.35 1.5,7.75 L 1.3,7.8 Q 0.35,7.8 0.05,7.2 -0.1,7.05 0.5,6.2 L 1.35,5.3 Q 1.6,3.7 2.6,2.15 3.95,0 5.65,0 q 1.7,0 3.05,2.15 1,1.5 1.25,3.1 l 0.9,0.95 0.45,1 m -7.65,3.5 q 1.55,0 1.55,2.05 0,0.7 -1.6,0.8 l -2.2,-0.3 q -0.9,-0.5 0.3,-1.55 1.1,-1 1.95,-1 m 4.15,0 q 0.85,0 1.95,1 1.15,1.05 0.3,1.55 -0.7,0.45 -2.2,0.3 -1.6,-0.1 -1.6,-0.8 0,-2.05 1.55,-2.05"
         fill="url(#gradient1)"
         fill-rule="evenodd"
         stroke="none"
         id="path4078" />
    </g>
    <linearGradient
       gradientTransform="matrix(0.0062,0,0,0.0063,5.65,5.15)"
       gradientUnits="userSpaceOnUse"
       id="gradient1"
       spreadMethod="pad"
       x1="-819.20001"
       x2="819.20001">
      <stop
         offset="0.0"
         stop-color="#ff9966"
         id="stop4081" />
      <stop
         offset="1.0"
         stop-color="#ff9966"
         stop-opacity="0.0"
         id="stop4083" />
    </linearGradient>
  </defs>
</svg>
